lib/svg/gift.svg

<svg xmlns="http://www.w3.org/2000/svg" width="14" height="16" viewBox="0 0 14 16"><path d="M13 4h-1.38c.19-.33.33-.67.36-.91.06-.67-.11-1.22-.52-1.61C11.1 1.1 10.65 1 10.1 1h-.11c-.53.02-1.11.25-1.53.58-.42.33-.73.72-.97 1.2-.23-.48-.55-.88-.97-1.2-.42-.32-1-.58-1.53-.58h-.03c-.56 0-1.06.09-1.44.48-.41.39-.58.94-.52 1.61.03.23.17.58.36.91H1.98c-.55 0-1 .45-1 1v3h1v5c0 .55.45 1 1 1h9c.55 0 1-.45 1-1V8h1V5c0-.55-.45-1-1-1H13zm-4.78-.88c.17-.36.42-.67.75-.92.3-.23.72-.39 1.05-.41h.09c.45 0 .66.11.8.25s.33.39.3.95c-.05.19-.25.61-.5 1h-2.9l.41-.88v.01zM4.09 2.04c.13-.13.31-.25.91-.25.31 0 .72.17 1.03.41.33.25.58.55.75.92L7.2 4H4.3c-.25-.39-.45-.81-.5-1-.03-.56.16-.81.3-.95l-.01-.01zM7 12.99H3V8h4v5-.01zm0-6H2V5h5v2-.01zm5 6H8V8h4v5-.01zm1-6H8V5h5v2-.01z"/></svg>

<?xml version="1.0" encoding="UTF-8" standalone="no"?>
<svg width="14px" height="16px" viewBox="0 0 14 16" version="1.1" xmlns="http://www.w3.org/2000/svg" xmlns:xlink="http://www.w3.org/1999/xlink">
    <!-- Generator: Sketch 3.8.3 (29802) - http://www.bohemiancoding.com/sketch -->
    <title>gift</title>
    <desc>Created with Sketch.</desc>
    <defs></defs>
    <g id="Octicons" stroke="none" stroke-width="1" fill="none" fill-rule="evenodd">
        <g id="gift" fill="#000000">
            <path d="M13,4 L11.62,4 C11.81,3.67 11.95,3.33 11.98,3.09 C12.04,2.42 11.87,1.87 11.46,1.48 C11.1,1.1 10.65,1 10.1,1 L9.99,1 C9.46,1.02 8.88,1.25 8.46,1.58 C8.04,1.91 7.73,2.3 7.49,2.78 C7.26,2.3 6.94,1.9 6.52,1.58 C6.1,1.26 5.52,1 4.99,1 L4.96,1 C4.4,1 3.9,1.09 3.52,1.48 C3.11,1.87 2.94,2.42 3,3.09 C3.03,3.32 3.17,3.67 3.36,4 L1.98,4 C1.43,4 0.98,4.45 0.98,5 L0.98,8 L1.98,8 L1.98,13 C1.98,13.55 2.43,14 2.98,14 L11.98,14 C12.53,14 12.98,13.55 12.98,13 L12.98,8 L13.98,8 L13.98,5 C13.98,4.45 13.53,4 12.98,4 L13,4 Z M8.22,3.12 C8.39,2.76 8.64,2.45 8.97,2.2 C9.27,1.97 9.69,1.81 10.02,1.79 L10.11,1.79 C10.56,1.79 10.77,1.9 10.91,2.04 C11.05,2.18 11.24,2.43 11.21,2.99 C11.16,3.18 10.96,3.6 10.71,3.99 L7.81,3.99 L8.22,3.11 L8.22,3.12 Z M4.09,2.04 C4.22,1.91 4.4,1.79 5,1.79 C5.31,1.79 5.72,1.96 6.03,2.2 C6.36,2.45 6.61,2.75 6.78,3.12 L7.2,4 L4.3,4 C4.05,3.61 3.85,3.19 3.8,3 C3.77,2.44 3.96,2.19 4.1,2.05 L4.09,2.04 Z M7,12.99 L3,12.99 L3,8 L7,8 L7,13 L7,12.99 Z M7,6.99 L2,6.99 L2,5 L7,5 L7,7 L7,6.99 Z M12,12.99 L8,12.99 L8,8 L12,8 L12,13 L12,12.99 Z M13,6.99 L8,6.99 L8,5 L13,5 L13,7 L13,6.99 Z" id="Shape"></path>
        </g>
    </g>
</svg>
